X: 42207
T: Waves Are Rolling
R: waltz
M: 3/4
K: Bminor
d4 ed|c4 F2|B4 AG|FD5|A4 E2|A6|B4 A2|G6|c4 d2|e4 c2|d6|d6|
B4 cB|A4 F2|G4 FD|E6|B4 cB|A4 F2|G4 FD|E6||
F4 B/c/d|cF4A|B4 AG|FD5|A4 E2|A6|B4 A2|G6|c4 d2|e4 c2|d6|d6|
f4 gf|e4 fe|d4 ed|A6|f4 gf|e4 fe|d4 ed|A6||
F4 B/c/d|cF4A|B4 AG|FD5|A4 E2|A6|B4 A2|G6|c4 d2|e4 c2|d6|d6||

